Newaita-dark/actions/22/draw-halfcircle4.svg

<svg height="22" viewBox="0 0 22 22" width="22" xmlns="http://www.w3.org/2000/svg"><g fill="#e0e0e0"><path d="m19.101562 11.085938c0 4.535156-3.652343 8.1875-8.1875 8.1875-4.535156 0-8.183593-3.652344-8.183593-8.1875h1.816406c0 3.527343 2.839844 6.367187 6.367187 6.367187 3.527344 0 6.367188-2.839844 6.367188-6.367187zm0 0"/><path d="m19.101562 11.085938c0-.5-.40625-.910157-.910156-.910157h-14.554687c-.5 0-.90625.410157-.90625.910157 0 .503906.40625.910156.90625.910156h14.554687c.503906 0 .910156-.40625.910156-.910156zm0 0"/></g></svg>

<?xml version="1.0" encoding="UTF-8"?>
<svg xmlns="http://www.w3.org/2000/svg" xmlns:xlink="http://www.w3.org/1999/xlink" width="22px" height="22px" viewBox="0 0 22 22" version="1.1">
<g id="surface1">
<path style=" stroke:none;fill-rule:nonzero;fill:rgb(87.843138%,87.843138%,87.843138%);fill-opacity:1;" d="M 19.101562 11.085938 C 19.101562 15.621094 15.449219 19.273438 10.914062 19.273438 C 6.378906 19.273438 2.730469 15.621094 2.730469 11.085938 L 4.546875 11.085938 C 4.546875 14.613281 7.386719 17.453125 10.914062 17.453125 C 14.441406 17.453125 17.28125 14.613281 17.28125 11.085938 Z M 19.101562 11.085938 "/>
<path style=" stroke:none;fill-rule:nonzero;fill:rgb(87.843138%,87.843138%,87.843138%);fill-opacity:1;" d="M 19.101562 11.085938 C 19.101562 10.585938 18.695312 10.175781 18.191406 10.175781 L 3.636719 10.175781 C 3.136719 10.175781 2.730469 10.585938 2.730469 11.085938 C 2.730469 11.589844 3.136719 11.996094 3.636719 11.996094 L 18.191406 11.996094 C 18.695312 11.996094 19.101562 11.589844 19.101562 11.085938 Z M 19.101562 11.085938 "/>
</g>
</svg>
